src/images/how-it-works-arrow-41.svg

<svg width="50" height="50" viewBox="0 0 50 50" fill="none" xmlns="http://www.w3.org/2000/svg">
<path d="M2 48.054C10.1864 28.3103 26.5984 14.5211 46 8.05395" stroke="black" stroke-width="3" stroke-linecap="round"/>
<path d="M44.1725 16.8242C44.555 14.4815 46.0314 12.4415 46.7244 10.1893C46.905 9.60243 47.2671 8.62588 47.6756 8.21739C48.3196 7.57338 48.4516 7.0634 47.6292 6.59346C46.9632 6.21293 46.2729 5.87985 45.5297 5.5495C44.8317 5.23929 43.5337 4.70189 43.0242 4.19236C42.6445 3.8127 41.4889 3.17841 40.9363 3.05561C40.1558 2.88218 39.3293 2.00006 38.5352 2.00006" stroke="black" stroke-width="3" stroke-linecap="round"/>
</svg>

<svg width="50" height="50" fill="none" xmlns="http://www.w3.org/2000/svg"><path d="M2 48.054c8.1864-19.7437 24.5984-33.5329 44-40" stroke="#000" stroke-width="3" stroke-linecap="round"/><path d="M44.1725 16.8242c.3825-2.3427 1.8589-4.3827 2.5519-6.6349.1806-.5869.5427-1.5634.9512-1.972.644-.644.776-1.1539-.0464-1.6238-.666-.3806-1.3563-.7136-2.0995-1.044-.698-.3102-1.996-.8476-2.5055-1.3571-.3797-.3797-1.5353-1.014-2.0879-1.1368-.7805-.1734-1.607-1.0555-2.4011-1.0555" stroke="#000" stroke-width="3" stroke-linecap="round"/></svg>
